X: 38931
T: Surround, The
R: slip jig
M: 9/8
K: Gmajor
|:G2B A2G E3|B2d d2B A2G|G2B A2G E3|DEF G2B A2G:|
|:B3 B2G B2d|c2B A2G F2A|B3 B2A B2G|DEF G2B A2G:|

